public/img/icons/github.svg

<svg width="512" height="512" viewBox="0 0 512 512" fill="none" xmlns="http://www.w3.org/2000/svg">
<path d="M183.874 460.8C198.441 460.8 202.414 455.055 202.414 447.98C202.414 441.646 202.189 424.873 202.076 402.647C126.602 418.724 110.684 366.879 110.684 366.879C98.3397 336.107 80.4965 327.875 80.4965 327.875C55.9205 311.347 82.396 311.685 82.396 311.685C109.645 313.539 123.955 339.159 123.955 339.159C148.147 379.924 187.469 368.148 202.982 361.339C205.424 344.084 212.413 332.349 220.165 325.683C159.908 319.012 96.5733 296.084 96.5733 193.93C96.5733 164.828 107.09 141.046 124.498 122.388C121.446 115.651 112.287 88.5402 126.873 51.8195C126.873 51.8195 149.596 44.672 201.487 79.1552C223.196 73.2314 246.256 70.2925 269.322 70.1542C292.388 70.2874 315.448 73.2314 337.157 79.1552C388.71 44.672 411.433 51.8195 411.433 51.8195C426.015 88.5402 416.86 115.651 414.146 122.388C431.442 141.041 441.958 164.828 441.958 193.93C441.958 296.356 378.537 318.899 318.162 325.458C327.659 333.46 336.476 349.809 336.476 374.794C336.476 410.476 336.138 439.147 336.138 447.805C336.138 454.794 339.159 460.467 354.79 460.467L183.874 460.8Z" fill="#212121"/>
</svg>

<svg width="512" height="512" fill="none" xmlns="http://www.w3.org/2000/svg"><path d="M183.874 460.8c14.567 0 18.54-5.745 18.54-12.82 0-6.334-.225-23.107-.338-45.333-75.474 16.077-91.392-35.768-91.392-35.768-12.344-30.772-30.188-39.004-30.188-39.004-24.575-16.528 1.9-16.19 1.9-16.19 27.249 1.854 41.559 27.474 41.559 27.474 24.192 40.765 63.514 28.989 79.027 22.18 2.442-17.255 9.431-28.99 17.183-35.656-60.257-6.671-123.592-29.599-123.592-131.753 0-29.102 10.517-52.884 27.925-71.542-3.052-6.737-12.211-33.848 2.375-70.569 0 0 22.723-7.147 74.614 27.336 21.709-5.924 44.769-8.862 67.835-9 23.066.132 46.126 3.076 67.835 9 51.553-34.483 74.276-27.336 74.276-27.336 14.582 36.721 5.427 63.832 2.713 70.569 17.296 18.653 27.812 42.44 27.812 71.542 0 102.426-63.421 124.969-123.796 131.528 9.497 8.002 18.314 24.351 18.314 49.336 0 35.682-.338 64.353-.338 73.011 0 6.989 3.021 12.662 18.652 12.662l-170.916.333z" fill="#212121"/></svg>
